svg/gamepad_left.svg

<svg xmlns="http://www.w3.org/2000/svg" viewBox="0 0 24 24"><path d="M9 2v5.5l3 3 3-3V2zM2 9v6h5.5l3-3-3-3zm14.5 0-3 3 3 3H22V9zM4 11h2v2H4zm8 2.5-3 3V22h6v-5.5z"/></svg>

<?xml version="1.0" encoding="UTF-8"?><!DOCTYPE svg PUBLIC "-//W3C//DTD SVG 1.1//EN" "http://www.w3.org/Graphics/SVG/1.1/DTD/svg11.dtd"><svg xmlns="http://www.w3.org/2000/svg" xmlns:xlink="http://www.w3.org/1999/xlink" version="1.1" id="mdi-gamepad-left" width="24" height="24" viewBox="0 0 24 24"><path d="M9,2V7.5L12,10.5L15,7.5V2H9M2,9V15H7.5L10.5,12L7.5,9H2M16.5,9L13.5,12L16.5,15H22V9H16.5M4,11H6V13H4V11M12,13.5L9,16.5V22H15V16.5L12,13.5Z" /></svg>
